X:1
T:Good Day and Welcome
T:Good Day and Welcome
T:Arranged from Edvard H. Grieg (1843-1907)
T:Public Domain Courtesy of the Cyber Hymnal™
C:Arranged from Edvard H. Grieg (1843-1907)
Z:Public Domain
Z:Courtesy of the Cyber Hymnal™
%%score ( 1 2 ) ( 3 4 )
L:1/8
Q:1/4=90
M:6/8
K:Eb
V:1 treble 
V:2 treble 
V:3 bass 
V:4 bass 
V:1
 (g2 eg>fe [Ge]3- [Ge]2) |: [B,B] | [EG]2 [B,E]!<(! [=B,G]>[B,F]!<)![B,E] | %3
w: ~ * * * * * *|1.~Good|day and wel- come, dear|
w: ~ * * * * * *|2.~’Twas|Christ- mas- tide in the|
w: ~ * * * * * *|3.~At|twi- light hour in the|
 [CF]2!>(! [Ec] [DB]2!>)! [FB] | [EG]2 [B,E]!<(! [=B,G]>[B,F][B,E] | %5
w: Christ- mas tree! To|young and old bring- ing|
w: East- ern land When|God His star in the|
w: long a- go Our|mo- ther taught us the|
 [CF]2!<)! [Ec]!>(! [Dc][DB][FA]!>)! | [EG]2 [GB]!<(! [Ge][Gd][EB]!<)! | %7
w: peace and plea- sure, ’Mid|glow and glim- mer and|
w: heav- ens kin- dled, That|all might know, to the|
w: heav’n- ly mes- sage, That|Je- sus broght to all|
!>(! [Ec]2 [E=A]!>)! [DF]2!<(! [DB]!<)! |!>(! [Ec]2 [Fd]!>)! [Ec]!<(![DB]!<)![DB] | %9
w: child- ren’s glee, ’Bove|fruits and flags shines a|
w: far- thest strand, To|earth that night He had|
w: men be- low, Those|hours and words can ne’er|
"^rit." (cf)[Fd] [Ec]!fermata![DB][FB] | [Ee]2 [Ed] [Ec]>[DB][CA] | [Ad]2 [Ac] [GB]>[FA]G | c6- | %13
w: bright * star gold- en. That|star shall guide us, what-|e’er be- tide us, Tow’rd|God|
w: sent * child Je- sus. O|won- drous sto- ry, what|light and glo- ry In|Beth-|
w: be * for- got- ten. Those|mem- ’ries saint- ed thou|bring’st un- taint- ed, O|Christ-|
 [Ac]3 [Ad]3 | [Ge]4- [Ge]"^Play 3 times" :| %15
w: * on|high! *|
w: * le-|hem! *|
w: * mas|tree! *|
V:2
 G3 A3 x5 |: x | x6 | x6 | x6 | x6 | x6 | x6 | x6 | E2 x4 | x6 | x5 G | G3 B3 | x6 | x5 :| %15
V:3
 (B,3 C3 [E,B,]3- [E,B,]2) |: [B,,B,] | [E,B,]2 [E,G,] [E,G,]>[E,G,][E,G,] | %3
 [E,A,]2 [E,A,] [E,F,]2 [E,A,] | [E,B,]2 [E,G,]!<(! [E,G,]>[E,G,][E,G,] | %5
 [E,A,]2!<)! [E,A,] [E,A,][E,F,][E,B,] | [E,B,]2 [E,B,] [C,B,][C,B,][C,G,] | %7
!>(! [F,=A,]2 [F,C]!>)! [B,,B,]2!<(! [B,,F,]!<)! | %8
!>(! [B,,G,]2 [B,,=A,]!>)! [B,,F,]!<(![B,,B,]!<)![B,,F,] | %9
 [B,,G,]2 [B,,=A,] [B,,F,]!fermata![B,,B,][_A,B,] | [G,B,]2 [G,B,] [A,C]>[A,D][A,E] | %11
 [F,D]2 [F,D] [G,D]>[G,C][G,B,] | C6- | [F,C]3 [B,,B,]3 | [E,B,]4- [E,B,]"^Play 3 times" :| %15
V:4
 E,6 x5 |: x | x6 | x6 | x6 | x6 | x6 | x6 | x6 | x6 | x6 | x6 | E,3 =E,3 | x6 | x5 :| %15

